X:465
T:Peter and Doreen Chiasson
R:slow march
C:Brenda Stubbert
S:Buddy MacMaster, Gaelic Roots III, Boston 1997
Z:Added by elizabeth.scarlett@rogers.com
M:C
L:1/16
K:D
F3G|A3B A>GFfe<d c2e2 e2 F>G|A3B A>GFeggf<e d4 d2:|
f>g|a3d g>fe<d B2d2 d3B|A>FA<d f<ag<f e4 e2fg|a3d g>fe<d B2d2 d3B|A>FA<d c<eA<c d2D2 D2fg|
a3d g>fe<d B2d2 d3B|A>FA<d f<ag<f e4 e2FG|A3B A>GF<E D2d2 d2ef|g>eggf<e d4 d2:|
